icon-themes/elementary_svg/cmd/lc_graphicfiltersobel.svg

<svg viewBox="0 0 24 24" xmlns="http://www.w3.org/2000/svg" xmlns:xlink="http://www.w3.org/1999/xlink"><linearGradient id="a" gradientUnits="userSpaceOnUse" x1="20.940678" x2="3.186441" y1=".305084" y2="22.932202"><stop offset="0" stop-color="#808080"/><stop offset=".54610044" stop-color="#6d6d6d"/><stop offset="1" stop-color="#4f5053"/></linearGradient><radialGradient id="b" cx="62.625" cy="4.625" gradientTransform="matrix(1.1294118 0 0 .2823525 -58.729414 19.694118)" gradientUnits="userSpaceOnUse" r="10.625"><stop offset="0"/><stop offset="1" stop-opacity="0"/></radialGradient><linearGradient id="c" gradientTransform="matrix(1.0862728 0 0 1.0862481 -15.063246 16.245093)" gradientUnits="userSpaceOnUse" x1="22.93128" x2="5.288017" y1=".308377" y2="18.25753"><stop offset="0" stop-color="#fff"/><stop offset="1" stop-color="#fff" stop-opacity="0"/></linearGradient><path d="m17.507812 1.9999995-4.999999 5-1.367188 1.3671875c-1.6877872 1.6025994-3.3926163 3.422575-5 5.000001-4.9317292 4.951958-5.45853069 10.668918 1.7928537 6.763174l3.5587093-3.130362 1.40625-1.40625 4.101562-4.101562.898437-.898438 4.101563-4.101563v-1.9921875l-2.5-2.5-2.34812.1652542" fill="url(#a)" stroke="#4c4c4c" stroke-linejoin="round"/><path d="m24 21c0 1.656854-5.372583 3-12 3-6.6274173 0-12.00000025-1.343146-12.00000025-3s5.37258295-3 12.00000025-3c6.627417 0 12 1.343146 12 3z" fill="url(#b)" fill-rule="evenodd" opacity=".3"/><path d="m4.5762711 16.525424c2.9728896-3.530663 8.8173189-8.9388719 13.2259789-13.4083075l1.298417-.1047793 1.944011 1.9440118-.05701 1.142261c-4.793404 4.618859-9.673055 9.970859-14.3774986 13.833593" fill="none" opacity=".5" stroke="url(#c)"/></svg>

<?xml version="1.0" encoding="UTF-8" standalone="no"?>
<svg
   xmlns:dc="http://purl.org/dc/elements/1.1/"
   xmlns:cc="http://creativecommons.org/ns#"
   xmlns:rdf="http://www.w3.org/1999/02/22-rdf-syntax-ns#"
   xmlns:svg="http://www.w3.org/2000/svg"
   xmlns="http://www.w3.org/2000/svg"
   xmlns:xlink="http://www.w3.org/1999/xlink"
   xmlns:sodipodi="http://sodipodi.sourceforge.net/DTD/sodipodi-0.dtd"
   xmlns:inkscape="http://www.inkscape.org/namespaces/inkscape"
   viewBox="0 0 24 24"
   id="svg2"
   version="1.1"
   inkscape:version="0.91 r13725"
   sodipodi:docname="lc_graphicfiltersobel.svg">
  <metadata
     id="metadata15">
    <rdf:RDF>
      <cc:Work
         rdf:about="">
        <dc:format>image/svg+xml</dc:format>
        <dc:type
           rdf:resource="http://purl.org/dc/dcmitype/StillImage" />
      </cc:Work>
    </rdf:RDF>
  </metadata>
  <sodipodi:namedview
     pagecolor="#ffffff"
     bordercolor="#666666"
     borderopacity="1"
     objecttolerance="10"
     gridtolerance="10"
     guidetolerance="10"
     inkscape:pageopacity="0"
     inkscape:pageshadow="2"
     inkscape:window-width="2048"
     inkscape:window-height="1095"
     id="namedview13"
     showgrid="false"
     inkscape:zoom="9.8333333"
     inkscape:cx="-2.8474576"
     inkscape:cy="12"
     inkscape:window-x="0"
     inkscape:window-y="30"
     inkscape:window-maximized="1"
     inkscape:current-layer="svg2" />
  <defs
     id="defs4">
    <linearGradient
       y2="15.573532"
       x2="11.853017"
       y1="12.06653"
       x1="8.369491"
       gradientUnits="userSpaceOnUse"
       id="0">
      <stop
         stop-color="#4d4d4d"
         id="stop7" />
      <stop
         offset="1"
         stop-color="#b3b3b3"
         id="stop9" />
    </linearGradient>
    <linearGradient
       inkscape:collect="always"
       xlink:href="#d"
       id="linearGradient4196"
       x1="19.152542"
       y1="2.6440678"
       x2="4.9491525"
       y2="20.745762"
       gradientUnits="userSpaceOnUse"
       gradientTransform="matrix(1.25,0,0,1.25,-3,-3.0000005)" />
    <linearGradient
       id="d"
       gradientUnits="userSpaceOnUse"
       x1="3.6966691"
       x2="19.821404"
       y1="16.722891"
       y2="16.722891"
       gradientTransform="matrix(0,1.3789557,-1.3132911,0,4.5637199,-6.2490893)">
      <stop
         offset="0"
         stop-color="#808080"
         id="stop22" />
      <stop
         offset=".54610044"
         stop-color="#6d6d6d"
         id="stop24" />
      <stop
         offset="1"
         stop-color="#4f5053"
         id="stop26" />
    </linearGradient>
    <radialGradient
       id="a"
       cx="62.625"
       cy="4.625"
       gradientTransform="matrix(1.1294118,0,0,0.2823525,-58.729414,19.694118)"
       gradientUnits="userSpaceOnUse"
       r="10.625">
      <stop
         offset="0"
         id="stop5" />
      <stop
         offset="1"
         stop-opacity="0"
         id="stop7-3" />
    </radialGradient>
    <linearGradient
       inkscape:collect="always"
       xlink:href="#e"
       id="linearGradient4206"
       x1="22.93128"
       y1="0.30837673"
       x2="5.2880173"
       y2="18.25753"
       gradientUnits="userSpaceOnUse" />
    <linearGradient
       id="e"
       gradientTransform="matrix(1.0862728,0,0,1.0862481,-15.063246,16.245093)"
       gradientUnits="userSpaceOnUse"
       x1="63.397362"
       x2="63.397362"
       y1="-12.489107"
       y2="5.4675598">
      <stop
         offset="0"
         stop-color="#fff"
         id="stop29" />
      <stop
         offset="1"
         stop-color="#fff"
         stop-opacity="0"
         id="stop31" />
    </linearGradient>
  </defs>
  <path
     inkscape:connector-curvature="0"
     style="fill:url(#linearGradient4196);fill-opacity:1;stroke:#4c4c4c;stroke-linejoin:round;stroke-opacity:1"
     d="m 17.507812,1.9999995 -4.999999,5 -1.367188,1.3671875 c -1.6877872,1.6025994 -3.3926163,3.422575 -5,5.000001 -4.9317292,4.951958 -5.45853069,10.668918 1.7928537,6.763174 L 11.492188,17 12.898438,15.59375 17,11.492188 17.898437,10.59375 22,6.492187 l 0,-1.9921875 -2.5,-2.5 -2.34812,0.1652542"
     id="path11"
     sodipodi:nodetypes="ccccccccccccc" />
  <path
     inkscape:connector-curvature="0"
     style="opacity:0.3;fill:url(#a);fill-rule:evenodd"
     d="m 24,21 c 0,1.656854 -5.372583,3 -12,3 C 5.3725827,24 -2.5e-7,22.656854 -2.5e-7,21 -2.5e-7,19.343146 5.3725827,18 12,18 c 6.627417,0 12,1.343146 12,3 l 0,0 z"
     id="path38" />
  <path
     style="opacity:0.5;fill:none;fill-rule:evenodd;stroke:url(#linearGradient4206);stroke-width:1px;stroke-linecap:butt;stroke-linejoin:miter;stroke-opacity:1"
     d="M 4.5762711,16.525424 C 7.5491607,12.994761 13.39359,7.5865521 17.80225,3.1171165 l 1.298417,-0.1047793 1.944011,1.9440118 -0.05701,1.142261 c -4.793404,4.618859 -9.673055,9.970859 -14.3774986,13.833593"
     id="path4198"
     inkscape:connector-curvature="0"
     sodipodi:nodetypes="cccccc" />
</svg>
